static/img/in-field/btn-colour-mix-progression-text-only-dark.svg

<svg width="108" height="48" viewBox="0 0 108 48" fill="none" xmlns="http://www.w3.org/2000/svg">
<path d="M29.6855 24.7246C29.6855 27.0749 29.015 28.875 27.6738 30.125C26.3392 31.375 24.4089 32 21.8828 32H17.8398V17.7227H22.3223C24.653 17.7227 26.4629 18.3379 27.752 19.5684C29.041 20.7988 29.6855 22.5176 29.6855 24.7246ZM26.541 24.8027C26.541 21.7363 25.1868 20.2031 22.4785 20.2031H20.8672V29.5H22.166C25.0827 29.5 26.541 27.9342 26.541 24.8027ZM37.1816 22.9961C36.5501 22.9961 36.0553 23.1979 35.6973 23.6016C35.3392 23.9987 35.1341 24.5651 35.082 25.3008H39.2617C39.2487 24.5651 39.0566 23.9987 38.6855 23.6016C38.3145 23.1979 37.8132 22.9961 37.1816 22.9961ZM37.6016 32.1953C35.8438 32.1953 34.4701 31.7103 33.4805 30.7402C32.4909 29.7702 31.9961 28.3965 31.9961 26.6191C31.9961 24.7897 32.4518 23.377 33.3633 22.3809C34.2812 21.3783 35.5475 20.877 37.1621 20.877C38.7051 20.877 39.9062 21.3164 40.7656 22.1953C41.625 23.0742 42.0547 24.2884 42.0547 25.8379V27.2832H35.0137C35.0462 28.1296 35.2969 28.7904 35.7656 29.2656C36.2344 29.7409 36.8919 29.9785 37.7383 29.9785C38.3958 29.9785 39.0176 29.9102 39.6035 29.7734C40.1895 29.6367 40.8014 29.4186 41.4395 29.1191V31.4238C40.9186 31.6842 40.362 31.8763 39.7695 32C39.1771 32.1302 38.4544 32.1953 37.6016 32.1953ZM50.7617 23.3184H48.1836V32H45.2051V23.3184H43.5645V21.8828L45.2051 21.082V20.2812C45.2051 19.0378 45.5111 18.1296 46.123 17.5566C46.735 16.9837 47.7148 16.6973 49.0625 16.6973C50.0911 16.6973 51.0059 16.8503 51.8066 17.1562L51.0449 19.3438C50.446 19.1549 49.8926 19.0605 49.3848 19.0605C48.9616 19.0605 48.6556 19.1875 48.4668 19.4414C48.278 19.6888 48.1836 20.0078 48.1836 20.3984V21.082H50.7617V23.3184ZM59.6641 32L59.0879 30.5156H59.0098C58.5085 31.1471 57.9909 31.5866 57.457 31.834C56.9297 32.0749 56.2396 32.1953 55.3867 32.1953C54.3385 32.1953 53.5117 31.8958 52.9062 31.2969C52.3073 30.6979 52.0078 29.8451 52.0078 28.7383C52.0078 27.5794 52.4115 26.7266 53.2188 26.1797C54.0326 25.6263 55.2565 25.3203 56.8906 25.2617L58.7852 25.2031V24.7246C58.7852 23.6178 58.2188 23.0645 57.0859 23.0645C56.2135 23.0645 55.1882 23.3281 54.0098 23.8555L53.0234 21.8438C54.2799 21.1862 55.6732 20.8574 57.2031 20.8574C58.668 20.8574 59.791 21.1764 60.5723 21.8145C61.3535 22.4525 61.7441 23.4225 61.7441 24.7246V32H59.6641ZM58.7852 26.9414L57.6328 26.9805C56.7669 27.0065 56.1224 27.1628 55.6992 27.4492C55.276 27.7357 55.0645 28.1719 55.0645 28.7578C55.0645 29.5977 55.5462 30.0176 56.5098 30.0176C57.1999 30.0176 57.75 29.819 58.1602 29.4219C58.5768 29.0247 58.7852 28.4974 58.7852 27.8398V26.9414ZM72.8047 32L72.4043 30.6035H72.248C71.929 31.1113 71.4766 31.5052 70.8906 31.7852C70.3047 32.0586 69.6374 32.1953 68.8887 32.1953C67.6061 32.1953 66.6393 31.8535 65.9883 31.1699C65.3372 30.4798 65.0117 29.4902 65.0117 28.2012V21.082H67.9902V27.459C67.9902 28.2467 68.1302 28.8392 68.4102 29.2363C68.6901 29.627 69.1361 29.8223 69.748 29.8223C70.5814 29.8223 71.1836 29.5456 71.5547 28.9922C71.9258 28.4323 72.1113 27.5078 72.1113 26.2188V21.082H75.0898V32H72.8047ZM81.4434 32H78.4648V16.8047H81.4434V32ZM89.4277 29.8223C89.9486 29.8223 90.5736 29.7083 91.3027 29.4805V31.6973C90.5605 32.0293 89.6491 32.1953 88.5684 32.1953C87.377 32.1953 86.5078 31.8958 85.9609 31.2969C85.4206 30.6914 85.1504 29.7865 85.1504 28.582V23.3184H83.7246V22.0586L85.3652 21.0625L86.2246 18.7578H88.1289V21.082H91.1855V23.3184H88.1289V28.582C88.1289 29.0052 88.2461 29.3177 88.4805 29.5195C88.7214 29.7214 89.0371 29.8223 89.4277 29.8223Z" fill="#019AEB"/>
</svg>

<svg width="108" height="48" fill="none" xmlns="http://www.w3.org/2000/svg"><path d="M29.686 24.725c0 2.35-.671 4.15-2.012 5.4C26.339 31.375 24.409 32 21.883 32H17.84V17.723h4.482c2.331 0 4.14.615 5.43 1.845 1.289 1.23 1.934 2.95 1.934 5.157zm-3.145.078c0-3.067-1.354-4.6-4.063-4.6h-1.61V29.5h1.298c2.917 0 4.375-1.566 4.375-4.697zm10.64-1.807c-.63 0-1.126.202-1.484.606-.358.397-.563.963-.615 1.699h4.18c-.013-.736-.205-1.302-.577-1.7-.37-.403-.872-.605-1.503-.605zm.42 9.2c-1.757 0-3.13-.486-4.12-1.456-.99-.97-1.485-2.343-1.485-4.12 0-1.83.456-3.243 1.367-4.24.918-1.002 2.184-1.503 3.8-1.503 1.542 0 2.743.44 3.603 1.318.859.88 1.289 2.093 1.289 3.643v1.445h-7.041c.032.847.283 1.507.752 1.983.468.475 1.126.713 1.972.713.658 0 1.28-.069 1.865-.206a9.331 9.331 0 001.837-.654v2.305c-.521.26-1.078.452-1.67.576-.593.13-1.316.195-2.168.195zm13.16-8.878h-2.577V32h-2.979v-8.682h-1.64v-1.435l1.64-.801v-.8c0-1.244.306-2.152.918-2.725.612-.573 1.592-.86 2.94-.86 1.028 0 1.943.153 2.744.46l-.762 2.187c-.599-.19-1.152-.284-1.66-.284-.423 0-.73.128-.918.381-.189.248-.283.567-.283.957v.684h2.578v2.236zM59.665 32l-.576-1.484h-.078c-.502.631-1.02 1.07-1.553 1.318-.527.24-1.217.361-2.07.361-1.048 0-1.875-.3-2.48-.898-.6-.6-.9-1.452-.9-2.559 0-1.159.404-2.011 1.212-2.558.814-.554 2.038-.86 3.672-.918l1.894-.059v-.478c0-1.107-.566-1.66-1.7-1.66-.871 0-1.897.263-3.075.79l-.987-2.011c1.257-.658 2.65-.987 4.18-.987 1.465 0 2.588.32 3.37.957.78.639 1.171 1.608 1.171 2.91V32h-2.08zm-.879-5.059l-1.152.04c-.866.025-1.51.182-1.934.468-.423.287-.634.723-.634 1.309 0 .84.481 1.26 1.445 1.26.69 0 1.24-.199 1.65-.596.417-.397.625-.925.625-1.582v-.899zM72.805 32l-.4-1.396h-.157c-.319.507-.771.901-1.357 1.181-.586.274-1.254.41-2.002.41-1.283 0-2.25-.341-2.9-1.025-.652-.69-.977-1.68-.977-2.969v-7.119h2.978v6.377c0 .788.14 1.38.42 1.777.28.391.726.586 1.338.586.833 0 1.436-.276 1.807-.83.37-.56.556-1.484.556-2.773v-5.137h2.979V32h-2.285zm8.638 0h-2.978V16.805h2.978V32zm7.985-2.178c.52 0 1.146-.114 1.875-.341v2.216c-.742.332-1.654.498-2.735.498-1.191 0-2.06-.3-2.607-.898-.54-.606-.81-1.51-.81-2.715v-5.264h-1.426v-1.26l1.64-.995.86-2.305h1.904v2.324h3.056v2.236H88.13v5.264c0 .423.117.736.352.938.24.201.556.302.947.302z" fill="#019AEB"/></svg>
